public/library/ventuals-text-dark.svg

<svg xmlns="http://www.w3.org/2000/svg" width="677" height="265" fill="none" viewBox="0 0 677 265"><path fill="#ede9dd" d="M115.552 124.183c-.563 1.97-23.264 21.018-23.658 20.033-.691-1.728 6.52-13.836 8.878-23.48s1.478-26.099 2.71-28.069 12.634 29.546 12.07 31.516"/><path fill="#fdf9ef" d="M126.171 113.855c-6.975-8.269-21.95-21.926-22.443-21.434-.492.493 6.019 13.801 7.662 18.479 1.644 4.678 3.941 13.05 3.941 13.05s6.537 2.222 12.318 4.924c5.779 2.702 11.33 5.909 11.823 5.663s-6.327-12.413-13.301-20.682"/><path fill="#d5d1c5" d="M128.43 128.807c-4.434-2.216-13.146-4.868-13.146-4.868s-8.326 8.237-9.804 9.714-13.05 10.563-13.543 10.603c-.317.025 5.24.193 11.113-.776a578 578 0 0 0 15.529-2.773c6.613-1.28 17.479-4.464 18.039-4.624s3.015-1.041 3.053-1.22-6.807-3.84-11.241-6.056"/><path fill="#ede9dd" d="M164.742 126.294c.531-1.196-18.132-48.866-18.208-45.911-.043 1.671-.442 15.785-1.133 23.557-.691 7.773-2.333 15.113-3.37 20.64s-10.714 28.239-10.255 28.461c.458.22 32.435-25.552 32.966-26.747"/><path fill="#fdf9ef" d="M164.841 126.307s30.9 20.519 31.363 19.258-18.941-33.862-25.437-41.786-22.987-24.5-23.937-23.755c-.54.423 7.149 17.402 8.914 21.467 1.764 4.066 9.097 24.816 9.097 24.816"/><path fill="#d5d1c5" d="M132.052 153.012c-.136-1.639 31.596-26.946 32.689-27.014 1.094-.068 31.565 19.157 31.36 19.772s-31.238 4.236-31.238 4.236-32.674 4.646-32.811 3.006"/><path fill="#fdf9ef" d="M103.655 148.557c-.459-.358-14.52-.201-15.351-.029s27.146 25.2 27.146 25.2 43.975 5.279 44.508 4.712 6.25-14.798 6.129-15.457-54.503-.094-54.503-.094-7.471-13.974-7.929-14.332"/><path fill="#fdf9ef" d="M166.094 163.022s-6.283 14.803-6.086 15.375c.197.573 17.852-10.296 24.197-14.164 6.346-3.869 15.376-8.698 15.792-9.73.215-.533-10.497.631-14.385 1.008-3.887.376-13.088 1.178-13.872 1.57-1.62.809-5.646 5.941-5.646 5.941"/><path fill="#ede9dd" d="M88.282 165.851s-.625-16.431-.014-17.277c.612-.847 14.101 12.56 14.101 12.56s13.011 11.758 12.974 12.47c-.037.711-27.06-7.753-27.06-7.753M199.948 154.73c-.329-1.572-40.105 23.759-40.105 23.759l20.614 2.875s19.82-25.062 19.491-26.634"/><path fill="#d5d1c5" d="m96.103 181.816 5.259 3.847s21.367.324 35.003.337c13.637.012 34.917-.273 34.917-.273s3.923-1.082 5.473-1.896 3.701-2.528 3.701-2.528l-20.469-2.841-44.59-4.888-27.12-7.723z"/><path fill="#fdf9ef" d="m278.179 110.179-16.604 51.495h-7.971L237 110.179h7.232l13.431 44.423 13.358-44.423zM316.271 138.321h-22.14v17.312h24.575v6.041h-31.438v-51.495h30.11v6.041h-23.247v16.06h22.14zM356.724 110.179h6.347v51.495h-7.675l-20.295-41.182h-.074v41.182h-6.346v-51.495h7.453l20.516 41.55h.074zM408.911 116.22h-15.424v45.454h-6.863V116.22h-15.497v-6.041h37.784zM445.232 145.54v-35.361h6.863v36.319q0 5.967-2.509 9.577-2.436 3.61-6.568 5.304-4.06 1.621-8.93 1.621-5.018 0-9.077-1.694-4.059-1.695-6.42-5.305-2.362-3.683-2.362-9.503v-36.319h6.863v35.361q0 4.494 1.476 6.999 1.55 2.432 4.059 3.462 2.51.958 5.461.958 3.026 0 5.535-1.031 2.51-1.032 4.059-3.463 1.55-2.505 1.55-6.925M491.736 161.674l-4.575-15.397h-17.785l-4.576 15.397h-7.085l16.31-51.495h8.634l16.236 51.495zm-20.663-21.143h14.39l-7.232-24.164zM508.796 110.179h6.863v45.454h24.574v6.041h-31.437zM584.524 125.06h-6.642q-.147-4.42-2.804-7.293-2.657-2.947-8.044-2.947-5.313 0-8.118 2.357-2.73 2.358-2.73 5.82 0 6.189 7.011 7.809l10.553 2.431q6.051 1.4 9.15 5.084t3.1 8.693q0 5.082-2.362 8.693-2.288 3.536-6.42 5.451-4.059 1.842-9.52 1.842-9.594 0-14.686-4.715-5.018-4.788-5.165-13.039h6.641q.075 5.156 3.469 8.398t9.889 3.241q5.83 0 8.486-2.504 2.731-2.505 2.731-6.41 0-3.462-1.919-5.451-1.845-1.99-5.682-2.873l-10.701-2.505q-5.608-1.326-8.56-4.715-2.952-3.463-2.952-8.767 0-4.346 2.214-7.588 2.214-3.315 6.199-5.157 4.059-1.915 9.593-1.915 5.388 0 9.225 1.989 3.911 1.989 5.978 5.452 2.066 3.389 2.066 7.661z"/></svg>

<svg width="677" height="265" viewBox="0 0 677 265" fill="none" xmlns="http://www.w3.org/2000/svg">
<path d="M115.552 124.183C114.989 126.153 92.2881 145.201 91.894 144.216C91.2027 142.488 98.4143 130.38 100.772 120.736C103.131 111.092 102.25 94.6372 103.482 92.6674C104.714 90.6977 116.116 122.213 115.552 124.183Z" fill="#EDE9DD"/>
<path d="M126.171 113.855C119.196 105.586 104.221 91.9287 103.728 92.4212C103.236 92.9136 109.747 106.222 111.39 110.9C113.034 115.578 115.331 123.95 115.331 123.95C115.331 123.95 121.868 126.172 127.649 128.874C133.428 131.576 138.979 134.783 139.472 134.537C139.965 134.291 133.145 122.124 126.171 113.855Z" fill="#FDF9EF"/>
<path d="M128.43 128.807C123.996 126.591 115.284 123.939 115.284 123.939C115.284 123.939 106.958 132.176 105.48 133.653C104.002 135.13 92.4294 144.216 91.9374 144.256C91.6203 144.281 97.1768 144.449 103.05 143.48C108.924 142.511 114.167 141.56 118.579 140.707C125.192 139.427 136.058 136.243 136.618 136.083C137.178 135.924 139.633 135.042 139.671 134.863C139.708 134.683 132.864 131.023 128.43 128.807Z" fill="#D5D1C5"/>
<path d="M164.742 126.294C165.273 125.098 146.61 77.4277 146.534 80.383C146.491 82.0544 146.092 96.1676 145.401 103.94C144.71 111.713 143.068 119.053 142.031 124.58C140.994 130.107 131.317 152.819 131.776 153.041C132.234 153.261 164.211 127.489 164.742 126.294Z" fill="#EDE9DD"/>
<path d="M164.841 126.307C164.841 126.307 195.741 146.826 196.204 145.565C196.667 144.305 177.263 111.703 170.767 103.779C164.271 95.8554 147.78 79.2799 146.83 80.0243C146.29 80.4473 153.979 97.4263 155.744 101.491C157.508 105.557 164.841 126.307 164.841 126.307Z" fill="#FDF9EF"/>
<path d="M132.052 153.012C131.916 151.373 163.648 126.066 164.741 125.998C165.835 125.93 196.306 145.155 196.101 145.77C195.896 146.385 164.863 150.006 164.863 150.006C164.863 150.006 132.189 154.652 132.052 153.012Z" fill="#D5D1C5"/>
<path d="M103.655 148.557C103.196 148.199 89.1352 148.356 88.3039 148.528C87.4726 148.7 115.45 173.728 115.45 173.728C115.45 173.728 159.425 179.007 159.958 178.44C160.491 177.873 166.208 163.642 166.087 162.983C165.966 162.324 111.584 162.889 111.584 162.889C111.584 162.889 104.113 148.915 103.655 148.557Z" fill="#FDF9EF"/>
<path d="M166.094 163.022C166.094 163.022 159.811 177.825 160.008 178.397C160.205 178.97 177.86 168.101 184.205 164.233C190.551 160.364 199.581 155.535 199.997 154.503C200.212 153.97 189.5 155.134 185.612 155.511C181.725 155.887 172.524 156.689 171.74 157.081C170.12 157.89 166.094 163.022 166.094 163.022Z" fill="#FDF9EF"/>
<path d="M88.2824 165.851C88.2824 165.851 87.6567 149.42 88.2681 148.574C88.8796 147.727 102.369 161.134 102.369 161.134C102.369 161.134 115.38 172.892 115.343 173.604C115.306 174.315 88.2824 165.851 88.2824 165.851Z" fill="#EDE9DD"/>
<path d="M199.948 154.73C199.619 153.158 159.843 178.489 159.843 178.489L180.457 181.364C180.457 181.364 200.277 156.302 199.948 154.73Z" fill="#EDE9DD"/>
<path d="M96.1027 181.816L101.362 185.663C101.362 185.663 122.729 185.987 136.365 186C150.002 186.012 171.282 185.727 171.282 185.727C171.282 185.727 175.205 184.645 176.755 183.831C178.305 183.018 180.456 181.303 180.456 181.303L159.987 178.462L115.397 173.574L88.2766 165.851L96.1027 181.816Z" fill="#D5D1C5"/>
<path d="M278.179 110.179L261.575 161.674H253.604L237 110.179H244.232L257.663 154.602L271.021 110.179H278.179Z" fill="#FDF9EF"/>
<path d="M316.271 138.321H294.131V155.633H318.706V161.674H287.268V110.179H317.378V116.22H294.131V132.28H316.271V138.321Z" fill="#FDF9EF"/>
<path d="M356.724 110.179H363.071V161.674H355.396L335.101 120.492H335.027V161.674H328.681V110.179H336.134L356.65 151.729H356.724V110.179Z" fill="#FDF9EF"/>
<path d="M408.911 116.22H393.487V161.674H386.624V116.22H371.127V110.179H408.911V116.22Z" fill="#FDF9EF"/>
<path d="M445.232 145.54V110.179H452.095V146.498C452.095 150.476 451.258 153.668 449.586 156.075C447.962 158.482 445.773 160.25 443.018 161.379C440.312 162.46 437.335 163 434.088 163C430.743 163 427.717 162.435 425.011 161.306C422.305 160.176 420.165 158.408 418.591 156.001C417.016 153.546 416.229 150.378 416.229 146.498V110.179H423.092V145.54C423.092 148.536 423.584 150.869 424.568 152.539C425.601 154.16 426.954 155.314 428.627 156.001C430.3 156.64 432.12 156.959 434.088 156.959C436.105 156.959 437.95 156.615 439.623 155.928C441.296 155.24 442.649 154.086 443.682 152.465C444.715 150.795 445.232 148.487 445.232 145.54Z" fill="#FDF9EF"/>
<path d="M491.736 161.674L487.161 146.277H469.376L464.8 161.674H457.715L474.025 110.179H482.659L498.895 161.674H491.736ZM471.073 140.531H485.463L478.231 116.367L471.073 140.531Z" fill="#FDF9EF"/>
<path d="M508.796 110.179H515.659V155.633H540.233V161.674H508.796V110.179Z" fill="#FDF9EF"/>
<path d="M584.524 125.06H577.882C577.784 122.113 576.849 119.682 575.078 117.767C573.307 115.802 570.625 114.82 567.034 114.82C563.492 114.82 560.786 115.606 558.916 117.177C557.096 118.749 556.186 120.689 556.186 122.997C556.186 127.123 558.523 129.726 563.197 130.806L573.75 133.237C577.784 134.171 580.834 135.865 582.9 138.321C584.967 140.776 586 143.674 586 147.014C586 150.402 585.213 153.3 583.638 155.707C582.113 158.064 579.973 159.881 577.218 161.158C574.512 162.386 571.339 163 567.698 163C561.302 163 556.407 161.428 553.012 158.285C549.667 155.093 547.945 150.746 547.847 145.246H554.488C554.538 148.683 555.694 151.483 557.957 153.644C560.22 155.805 563.516 156.885 567.846 156.885C571.732 156.885 574.561 156.05 576.332 154.381C578.153 152.711 579.063 150.574 579.063 147.971C579.063 145.663 578.423 143.846 577.144 142.52C575.914 141.194 574.02 140.236 571.462 139.647L560.761 137.142C557.022 136.258 554.169 134.686 552.201 132.427C550.233 130.119 549.249 127.196 549.249 123.66C549.249 120.763 549.987 118.233 551.463 116.072C552.939 113.862 555.005 112.143 557.662 110.915C560.368 109.638 563.565 109 567.255 109C570.847 109 573.922 109.663 576.48 110.989C579.088 112.315 581.08 114.132 582.458 116.441C583.835 118.7 584.524 121.254 584.524 124.102V125.06Z" fill="#FDF9EF"/>
</svg>
